X:7501
R:Jig
T:Green Shoots of Spring, The
C:Alan Day 2022
N:Transcribed by David Barnert
Z:Paul Hardy's Possible Tunebook 2022 (see www.paulhardy.net). Creative Commons cc by-nc-sa licenced.
M:6/8
L:1/8
Q:3/8=100
K:Am
G|"Am"A3-A2G|A2GE2D|E2AA2G|A3-A2B|"Am"c2A"G"B2G|"D"A2GE2D|"Em"E2AA2G|"Am"A3-A2:|
|:G|"Am"A3"G"B3|"Am"c3A3|"Am"c3"G"d3|"Em"e3-e2g|"D"a2ge2d|"Am"e2cA2B|1"Am"c2Ac2d|"Em"e3-e2:|2"Am"c2A"G"B2G|"Am"A3-A2|]

